src/lib/packages/icons/src/assets/filled/bolt.svg

<svg width="24" height="24" viewBox="0 0 24 24" fill="none" xmlns="http://www.w3.org/2000/svg">
<path d="M18.384 9.42599C18.147 8.85499 17.616 8.5 16.998 8.5L14.141 8.57001L15.857 4.59399C16.058 4.12899 16.011 3.59799 15.733 3.17599C15.455 2.75299 14.986 2.5 14.48 2.5H9.99999C9.16199 2.5 8.46699 3.024 8.19499 3.843L5.57799 10.525C5.42299 10.988 5.49798 11.48 5.78398 11.876C6.06998 12.272 6.513 12.5 7.002 12.5L9.82597 12.434L6.94096 20.838C6.86596 21.058 6.95197 21.301 7.14897 21.424C7.23097 21.475 7.32199 21.5 7.41399 21.5C7.54299 21.5 7.67099 21.45 7.76799 21.354L18.06 11.061C18.496 10.624 18.62 9.99699 18.384 9.42599Z" fill="currentColor"/>
</svg>

<svg xmlns="http://www.w3.org/2000/svg" width="24" height="24" fill="none"><path fill="currentColor" d="M18.384 9.426a1.478 1.478 0 0 0-1.386-.926l-2.857.07 1.716-3.976a1.494 1.494 0 0 0-.124-1.418A1.496 1.496 0 0 0 14.48 2.5H10c-.838 0-1.533.524-1.805 1.343l-2.617 6.682a1.48 1.48 0 0 0 .206 1.351c.286.396.729.624 1.218.624l2.824-.066-2.885 8.404a.5.5 0 0 0 .827.516L18.06 11.061a1.48 1.48 0 0 0 .324-1.635Z"/></svg>
